!!!OTL@@FUR: Biel cusint une intimele
!!!OTL@IT: Cucendo una federa di cuscino
!!!OTL@EN: While making a pillow case
**kern
*clefG2
*k[]80
*C:
*M6/8
*MM80
*>[A,A]
*>A
8e
8f
=1
4g
8g
4g
8f
=2
8a
4g
8r
8a
=3
8b
4cc
8cc
8b
8a
=4
8g
4.f
8r
8d
=5
8e
4f
8f
4f
=6
8e
8g
4f
8r
8g
=7
8a
4b
8b
8a
8g
=8
8a
4.e
8r
==:|!
*-
!!!ARE: Friuli
!!!ENC: Kelly Leistikow
!!!END: 2002/03/07
!!!ref: @{OTL@@FUR}/@{OTL@EN}
